X: 293
T: Marquiss of Huntlys fling
%R: strathspey
Z: 2014 John Chambers <jc:trillian.mit.edu>
B: Preston "Twenty four Country Dances for the Year 1796" p.127 #1
F: http://www.vwml.org/browse/browse-collections-dance-tune-books/browse-prestons1796# 2014-8-10
M: C|
L: 1/8
K: D
A |\
d<df>d g>ef>d | B<Be>B c>AA>c |\
d<df>d g<ef>d | B>e d/c/B/A/ d2D :|
|: B |\
A>D F/E/D A>Bd>f | g>ef>d e>dB>d |\
A>D F/E/D A>B d>b | a>fe>f d3 :|
% - - - - - - - - - - - - - - - - - - - - - - - - -
%%begintext align
%% Turn your Partner with your right hand and
%% cast of one Cu .| turn with your left hand & cast
%% up :| lead down the middle up again :|.
%%         Allemande :|:
%%endtext
% - - - - - - - - - - - - - - - - - - - - - - - - -

%%sep 1 1 500
%%sep 1 1 500
